app/img/icons/web.svg

<svg width="20" height="20" viewBox="0 0 20 20" fill="none" xmlns="http://www.w3.org/2000/svg">
<g clip-path="url(#clip0)">
<path d="M10.0009 20C15.5149 20 20.0009 15.514 20.0009 10.0001C20.0009 4.48603 15.5149 0 10.0009 0C4.48695 0 0.000976562 4.48603 0.000976562 10.0001C0.000976562 15.514 4.48695 20 10.0009 20ZM3.48108 14.9371C4.27344 14.6255 5.27107 14.3771 6.39239 14.2069C6.54463 15.1209 6.74669 15.9683 6.99578 16.7157C7.12627 17.1072 7.26366 17.4527 7.4056 17.7596C5.82967 17.2312 4.46646 16.2352 3.48108 14.9371ZM1.81915 10.0001C1.81915 8.8034 2.07745 7.66595 2.54102 6.6405C3.52423 7.06141 4.76622 7.38705 6.16536 7.59729C6.09724 8.37371 6.06155 9.17928 6.06155 10.0001C6.06155 10.8208 6.09724 11.6264 6.16536 12.4028C4.76622 12.6131 3.52417 12.9387 2.54108 13.3596C2.07745 12.3342 1.81915 11.1967 1.81915 10.0001ZM10.0009 1.81817C10.1967 1.81817 10.7672 2.31702 11.2813 3.85925C11.4925 4.49318 11.6663 5.21215 11.8004 5.99063C11.2159 6.03148 10.6133 6.05305 10.0007 6.05305C9.38825 6.05305 8.78577 6.03154 8.20147 5.99063C8.33553 5.21215 8.50929 4.49325 8.72062 3.85931C9.23468 2.31702 9.80516 1.81817 10.0009 1.81817ZM10.0007 7.87122C10.6932 7.87122 11.3721 7.84577 12.0297 7.79722C12.0904 8.50661 12.1221 9.24516 12.1221 10.0001C12.1221 10.755 12.0904 11.4934 12.0298 12.2028C11.3722 12.1542 10.6934 12.1288 10.0009 12.1288C9.30843 12.1288 8.62965 12.1542 7.97214 12.2028C7.91141 11.4934 7.87972 10.7549 7.87972 10.0001C7.87972 9.24516 7.91141 8.50667 7.97214 7.79722C8.62959 7.84577 9.30831 7.87122 10.0007 7.87122ZM18.1827 10.0001C18.1827 11.1967 17.9244 12.334 17.4608 13.3595C16.4776 12.9386 15.2356 12.613 13.8365 12.4028C13.9046 11.6264 13.9403 10.8208 13.9403 10.0001C13.9403 9.17922 13.9046 8.37365 13.8365 7.59723C15.2356 7.38699 16.4776 7.06129 17.4607 6.64032C17.9244 7.66583 18.1827 8.80334 18.1827 10.0001ZM10.0009 18.1818C9.80516 18.1818 9.23468 17.6829 8.72068 16.1408C8.50935 15.5068 8.33559 14.7878 8.20147 14.0094C8.78589 13.9685 9.38837 13.9469 10.0009 13.9469C10.6135 13.9469 11.216 13.9685 11.8004 14.0094C11.6663 14.7878 11.4925 15.5068 11.2813 16.1408C10.7672 17.683 10.1967 18.1818 10.0009 18.1818ZM12.5964 17.7596C12.7382 17.4527 12.8756 17.1072 13.0061 16.7157C13.2553 15.9683 13.4573 15.1209 13.6096 14.2069C14.7308 14.3771 15.7284 14.6254 16.5208 14.9371C15.5354 16.2351 14.1723 17.2311 12.5964 17.7596ZM16.5206 5.06282C15.7284 5.37445 14.7308 5.62287 13.6095 5.79299C13.4573 4.87906 13.2553 4.03167 13.0061 3.28428C12.8757 2.89283 12.7382 2.54732 12.5963 2.24029C14.1722 2.76889 15.5353 3.76483 16.5206 5.06282ZM7.4056 2.24035C7.26366 2.54726 7.12633 2.89283 6.99578 3.28428C6.74669 4.03179 6.54463 4.87912 6.39239 5.79312C5.27107 5.62294 4.27344 5.37457 3.48108 5.063C4.4664 3.76495 5.82961 2.76883 7.4056 2.24035Z" fill="#F3D79A"/>
</g>
<defs>
<clipPath id="clip0">
<rect width="20" height="20" fill="white"/>
</clipPath>
</defs>
</svg>

<svg width="20" height="20" fill="none" xmlns="http://www.w3.org/2000/svg"><g clip-path="url(#clip0)"><path d="M10 20c5.515 0 10-4.486 10-10S15.516 0 10 0C4.488 0 .002 4.486.002 10s4.486 10 10 10zm-6.519-5.063c.792-.311 1.79-.56 2.911-.73.153.914.355 1.761.604 2.509.13.391.268.737.41 1.044a8.215 8.215 0 01-3.925-2.823zM1.82 10c0-1.197.258-2.334.722-3.36.983.421 2.225.747 3.624.957a27.563 27.563 0 000 4.806c-1.399.21-2.64.536-3.624.957A8.134 8.134 0 011.82 10zm8.182-8.182c.196 0 .766.499 1.28 2.041.211.634.385 1.353.52 2.132a25.865 25.865 0 01-3.6 0c.135-.779.308-1.498.52-2.132.514-1.542 1.084-2.04 1.28-2.04zm0 6.053c.692 0 1.371-.025 2.029-.074.06.71.092 1.448.092 2.203 0 .755-.032 1.493-.092 2.203a27.573 27.573 0 00-4.058 0c-.06-.71-.092-1.448-.092-2.203 0-.755.031-1.493.092-2.203a27.59 27.59 0 002.029.074zm8.182 2.13a8.135 8.135 0 01-.722 3.359c-.983-.421-2.225-.747-3.624-.957a27.57 27.57 0 000-4.806c1.399-.21 2.64-.536 3.624-.957a8.135 8.135 0 01.722 3.36zM10 18.18c-.196 0-.766-.498-1.28-2.04a14.686 14.686 0 01-.52-2.132 25.825 25.825 0 013.6 0 14.7 14.7 0 01-.52 2.132c-.514 1.542-1.084 2.04-1.28 2.04zm2.595-.421c.142-.307.28-.653.41-1.044.25-.748.451-1.595.604-2.51 1.12.171 2.118.42 2.91.731a8.216 8.216 0 01-3.924 2.823zm3.925-12.697c-.793.311-1.79.56-2.912.73a16.652 16.652 0 00-.603-2.509c-.13-.391-.268-.737-.41-1.044a8.216 8.216 0 013.925 2.823zM7.406 2.24c-.142.307-.28.653-.41 1.044-.25.748-.451 1.595-.604 2.51-1.12-.171-2.119-.42-2.91-.731A8.215 8.215 0 017.405 2.24z" fill="#F3D79A"/></g><defs><clipPath id="clip0"><path fill="#fff" d="M0 0h20v20H0z"/></clipPath></defs></svg>
